sources/design/Outline/J.svg

<svg:svg xmlns:cc="http://creativecommons.org/ns#" xmlns:dc="http://purl.org/dc/elements/1.1/" xmlns:inkscape="http://www.inkscape.org/namespaces/inkscape" xmlns:rdf="http://www.w3.org/1999/02/22-rdf-syntax-ns#" xmlns:sodipodi="http://sodipodi.sourceforge.net/DTD/sodipodi-0.dtd" xmlns:svg="http://www.w3.org/2000/svg" xml:space="preserve" width="1000" height="1000" version="1.1" style="clip-rule:evenodd;fill-rule:evenodd;image-rendering:optimizeQuality;shape-rendering:geometricPrecision;text-rendering:geometricPrecision" viewBox="0 0 1000 1000" id="svg10" sodipodi:docname="J.svg" inkscape:version="1.0.2 (e86c870879, 2021-01-15)"><svg:metadata id="metadata14"><rdf:RDF><cc:Work rdf:about=""><dc:format>image/svg+xml</dc:format><dc:type rdf:resource="http://purl.org/dc/dcmitype/StillImage" /><dc:title /></cc:Work></rdf:RDF></svg:metadata><sodipodi:namedview pagecolor="#ffffff" bordercolor="#666666" borderopacity="1" objecttolerance="10" gridtolerance="10" guidetolerance="10" inkscape:pageopacity="0" inkscape:pageshadow="2" inkscape:window-width="1920" inkscape:window-height="1127" id="namedview12" showgrid="false" inkscape:zoom="1.2005384" inkscape:cx="384.97208" inkscape:cy="508.55433" inkscape:window-x="0" inkscape:window-y="0" inkscape:window-maximized="1" inkscape:current-layer="svg10" showguides="true" inkscape:guide-bbox="true" inkscape:document-rotation="0" inkscape:pagecheckerboard="0"><sodipodi:guide position="0,1000" orientation="0,1" id="guide16" inkscape:label="" inkscape:locked="true" inkscape:color="rgb(0,0,255)" /><sodipodi:guide position="1763.3122,2036.1693" orientation="1000,0" id="guide18" /><sodipodi:guide position="0,200" orientation="0,1" id="guide20" inkscape:label="base" inkscape:locked="true" inkscape:color="rgb(0,0,255)" /><inkscape:grid type="xygrid" id="grid24" originx="-473.37552" originy="-489.69235" /><sodipodi:guide position="0,0" orientation="0,1" id="guide34" inkscape:label="bottom" inkscape:locked="true" inkscape:color="rgb(0,0,255)" /><sodipodi:guide position="225.05109,1693.3186" orientation="0,1" id="guide44" inkscape:label="" inkscape:locked="false" inkscape:color="rgb(0,0,255)" /><sodipodi:guide position="0,900" orientation="0,1" id="guide46" inkscape:label="" inkscape:locked="true" inkscape:color="rgb(0,0,255)" /><sodipodi:guide position="335.27328,573.97804" orientation="1,0" id="guide841" inkscape:label="width" />    </sodipodi:namedview>
 <svg:defs id="defs4"><inkscape:path-effect effect="fillet_chamfer" id="path-effect853" is_visible="true" lpeversion="1" satellites_param="F,0,0,1,0,0,0,1 @ F,0,1,1,0,16.529097,0,1 @ F,0,1,1,0,16.529097,0,1 @ F,0,0,1,0,0,0,1 @ F,0,0,1,0,0,0,1 @ F,0,0,1,0,0,0,1 @ F,0,0,1,0,0,0,1 @ F,0,0,1,0,0,0,1 @ F,0,0,1,0,0,0,1 @ F,0,0,1,0,0,0,1 @ F,0,1,1,0,16.529097,0,1 @ F,0,1,1,0,16.529097,0,1 @ F,0,0,1,0,0,0,1 @ F,0,0,1,0,0,0,1 @ F,0,0,1,0,0,0,1 @ F,0,0,1,0,0,0,1 @ F,0,0,1,0,0,0,1 @ F,0,0,1,0,16.529097,0,1 @ F,0,0,1,0,0,0,1" unit="px" method="auto" mode="F" radius="0" chamfer_steps="1" flexible="false" use_knot_distance="true" apply_no_radius="true" apply_with_radius="true" only_selected="true" hide_knots="false" /><inkscape:path-effect effect="fillet_chamfer" id="path-effect855" is_visible="true" lpeversion="1" satellites_param="F,0,0,1,0,14.714648,0,1 @ F,0,0,1,0,20.270541,0,1 @ F,0,0,1,0,0,0,1 @ F,0,1,1,0,0,0,1 @ F,0,1,1,0,0,0,1 @ F,0,0,1,0,0,0,1 | F,0,0,1,0,16.158946,0,1 @ F,0,0,1,0,0,0,1 @ F,0,0,1,0,0,0,1 @ F,0,0,1,0,0,0,1 @ F,0,0,1,0,0,0,1 @ F,0,0,1,0,0,0,1 @ F,0,0,1,0,0,0,1 @ F,0,1,1,0,31.433347,0,1 @ F,0,1,1,0,31.433347,0,1 @ F,0,0,1,0,0,0,1 @ F,0,0,1,0,0,0,1 @ F,0,1,1,0,0,0,1 @ F,0,1,1,0,0,0,1 @ F,0,1,1,0,0,0,1 @ F,0,1,1,0,0,0,1" unit="px" method="auto" mode="F" radius="0" chamfer_steps="1" flexible="false" use_knot_distance="true" apply_no_radius="true" apply_with_radius="true" only_selected="true" hide_knots="false" /><inkscape:path-effect effect="spiro" id="path-effect852" is_visible="true" lpeversion="1" /><inkscape:path-effect effect="spiro" id="path-effect889" is_visible="true" lpeversion="1" /><inkscape:path-effect effect="spiro" id="path-effect849" is_visible="true" lpeversion="1" /><inkscape:path-effect effect="spiro" id="path-effect851" is_visible="true" lpeversion="1" />
  <svg:style type="text/css" id="style2">
   
    .fil0 {fill:#EF7F1A;fill-rule:nonzero}
   
  </svg:style>
 <inkscape:path-effect effect="spiro" id="path-effect1214" is_visible="true" lpeversion="1" /><inkscape:path-effect effect="spiro" id="path-effect1195" is_visible="true" lpeversion="1" /><inkscape:path-effect effect="spiro" id="path-effect992" is_visible="true" lpeversion="1" /><inkscape:path-effect effect="spiro" id="path-effect1060" is_visible="true" lpeversion="1" /><inkscape:path-effect effect="spiro" id="path-effect1047" is_visible="true" lpeversion="1" /><inkscape:path-effect effect="spiro" id="path-effect1085" is_visible="true" lpeversion="1" /><inkscape:path-effect effect="spiro" id="path-effect1286" is_visible="true" lpeversion="1" /></svg:defs>
 
<svg:g id="path849"><svg:path style="color:#000000;clip-rule:nonzero;fill:#1a5fb4;fill-rule:nonzero;stroke-linecap:round;stroke-linejoin:round;-inkscape-stroke:none;paint-order:fill stroke markers;shape-rendering:auto" d="M 279.84766,-30.90625 C 251.7998,-30.717802 223.76298000000003,-29.092515 195.87891000000002,-26.033203 C 158.09401000000003,-21.887619 121.03579000000002,-15.170965 84.62695300000001,-7.474609400000002 C 62.428958,-2.7822416 40.315365,2.3102225 18.300781,7.7988281 C -6.1867114,13.903972 -20.938385,34.364324 -19.361328,59.361328 L -13.482422,152.56055 C -12.742087,164.29516 -6.3584722,179.09489000000002 7.2578125,186.34766000000002 C 20.874097,193.60042 36.233818,190.77377 46.371094,185.15234 C 73.83726,169.92154000000002 102.82482999999999,157.40151 132.74023,147.85937 C 148.63102,142.79068 164.81441,138.66411000000002 181.15233999999998,135.28711 C 188.53857,242.19409000000002 195.35441999999998,349.1406 201.41601999999997,456.13086 C 204.63293999999996,512.91131 207.03443,567.76833 195.06835999999998,617.58398 C 190.48199,636.67738 183.87632,654.11572 174.35155999999998,667.9707 C 164.99729999999997,681.57768 152.12273999999996,692.0537899999999 138.98436999999998,696.31836 C 122.76664999999998,701.58245 101.06927999999999,699.02597 78.17968699999999,692.05664 C 64.01263699999998,687.74311 50.159773999999985,682.3622 36.78906199999999,675.98242 C 26.501676999999987,671.07384 11.127605999999986,668.9345400000001 -2.2011719000000127,677.08398 C -15.529950000000012,685.23343 -20.827603000000014,700.65489 -20.746094000000014,712.3046899999999 L -20.337891000000013,770.55859 C -20.168510000000012,794.76738 -8.077292000000014,813.26753 16.451171999999985,820.92578 C 38.91131199999998,827.93826 62.180357999999984,832.2772100000001 85.67773399999999,833.80664 C 114.72876999999998,835.6975600000001 144.7176,833.32492 173.76367,824.66211 C 235.08427,806.37362 286.07293,761.10622 312.26757999999995,703.01562 C 328.63356999999996,666.72157 334.39570999999995,628.94631 338.42968999999994,593.7207 C 360.35171999999994,402.29265 336.4696399999999,212.71871999999996 351.05663999999996,29.54492199999993 C 351.33471,26.05307599999993 351.62611999999996,22.563773999999928 351.93163999999996,19.07421899999993 C 354.12208,-5.94442410000007 333.56310999999994,-29.910014000000075 307.89453,-30.615234000000072 C 298.54809,-30.872019000000073 289.19694,-30.969066000000073 279.84765999999996,-30.90625000000007 L 279.84766,-30.90625 M 280.25195,29.091797 C 283.81757000000005,29.067827 287.38173,29.176956999999998 290.94727,29.203125 C 276.41316,219.07832 299.48656,406.41521 278.81836,586.89453 C 274.99697,620.2638000000001 269.58770999999996,651.7055 257.57227,678.3515600000001 C 238.71713,720.1656700000001 200.31548,754.1307300000001 156.61523,767.1640600000001 C 135.58709,773.4355800000001 112.66861,775.43667 89.576172,773.9335900000001 C 72.687177,772.8343 55.91176,769.80766 39.625,765.13477 L 39.464844,742.19336 C 46.471465,744.81879 53.542604,747.27487 60.703125,749.45508 C 88.946367,758.0544699999999 122.88813999999999,764.62451 157.50977,753.38672 C 186.08256,744.11231 208.3059,724.49171 223.79492,701.9609399999999 C 239.11345,679.6781699999999 247.75396999999998,655.14479 253.41016,631.5976599999999 C 268.06291999999996,570.5970699999999 264.54999,509.7437899999999 261.32031,452.7382799999999 C 254.61622,334.40758 247.10382,216.12256 238.7832,97.894531 A 30.003,30.003 0.0 0,0 204.78711,70.277344 C 174.17672,74.469853 143.94089,81.308355 114.50586,90.697266 C 90.536387,98.342823 67.154257,107.75394 44.5,118.67773 L 41.052734,64.041016 C 59.650181,59.495687 78.30624800000001,55.187976 97.037109,51.228516 C 132.28748000000002,43.777044 167.40091999999999,37.451712 202.42187,33.609375 C 228.26238,30.774274 254.25410000000002,29.266589 280.25195,29.091797 M 39.626953,765.48828 C 40.07865,766.08651 39.639213,767.14556 39.660153,770.13867 L 39.626953,765.48828" id="path17882" /></svg:g></svg:svg>

<svg:svg xmlns:cc="http://creativecommons.org/ns#" xmlns:dc="http://purl.org/dc/elements/1.1/" xmlns:inkscape="http://www.inkscape.org/namespaces/inkscape" xmlns:rdf="http://www.w3.org/1999/02/22-rdf-syntax-ns#" xmlns:sodipodi="http://sodipodi.sourceforge.net/DTD/sodipodi-0.dtd" xmlns:svg="http://www.w3.org/2000/svg" xml:space="preserve" width="1000" height="1000" version="1.1" style="clip-rule:evenodd;fill-rule:evenodd;image-rendering:optimizeQuality;shape-rendering:geometricPrecision;text-rendering:geometricPrecision" viewBox="0 0 1000 1000" id="svg10" sodipodi:docname="J.svg" inkscape:version="1.0.2 (e86c870879, 2021-01-15)"><svg:metadata id="metadata14"><rdf:RDF><cc:Work rdf:about=""><dc:format>image/svg+xml</dc:format><dc:type rdf:resource="http://purl.org/dc/dcmitype/StillImage" /><dc:title /></cc:Work></rdf:RDF></svg:metadata><sodipodi:namedview pagecolor="#ffffff" bordercolor="#666666" borderopacity="1" objecttolerance="10" gridtolerance="10" guidetolerance="10" inkscape:pageopacity="0" inkscape:pageshadow="2" inkscape:window-width="1920" inkscape:window-height="1127" id="namedview12" showgrid="false" inkscape:zoom="1.2005384" inkscape:cx="384.97208" inkscape:cy="508.55433" inkscape:window-x="0" inkscape:window-y="0" inkscape:window-maximized="1" inkscape:current-layer="svg10" showguides="true" inkscape:guide-bbox="true" inkscape:document-rotation="0" inkscape:pagecheckerboard="0"><sodipodi:guide position="0,1000" orientation="0,1" id="guide16" inkscape:label="" inkscape:locked="true" inkscape:color="rgb(0,0,255)" /><sodipodi:guide position="1763.3122,2036.1693" orientation="1000,0" id="guide18" /><sodipodi:guide position="0,200" orientation="0,1" id="guide20" inkscape:label="base" inkscape:locked="true" inkscape:color="rgb(0,0,255)" /><inkscape:grid type="xygrid" id="grid24" originx="-473.37552" originy="-489.69235" /><sodipodi:guide position="0,0" orientation="0,1" id="guide34" inkscape:label="bottom" inkscape:locked="true" inkscape:color="rgb(0,0,255)" /><sodipodi:guide position="225.05109,1693.3186" orientation="0,1" id="guide44" inkscape:label="" inkscape:locked="false" inkscape:color="rgb(0,0,255)" /><sodipodi:guide position="0,900" orientation="0,1" id="guide46" inkscape:label="" inkscape:locked="true" inkscape:color="rgb(0,0,255)" /><sodipodi:guide position="335.27328,573.97804" orientation="1,0" id="guide841" inkscape:label="width" />    </sodipodi:namedview>
 <svg:defs id="defs4"><inkscape:path-effect effect="fillet_chamfer" id="path-effect853" is_visible="true" lpeversion="1" satellites_param="F,0,0,1,0,0,0,1 @ F,0,1,1,0,16.529097,0,1 @ F,0,1,1,0,16.529097,0,1 @ F,0,0,1,0,0,0,1 @ F,0,0,1,0,0,0,1 @ F,0,0,1,0,0,0,1 @ F,0,0,1,0,0,0,1 @ F,0,0,1,0,0,0,1 @ F,0,0,1,0,0,0,1 @ F,0,0,1,0,0,0,1 @ F,0,1,1,0,16.529097,0,1 @ F,0,1,1,0,16.529097,0,1 @ F,0,0,1,0,0,0,1 @ F,0,0,1,0,0,0,1 @ F,0,0,1,0,0,0,1 @ F,0,0,1,0,0,0,1 @ F,0,0,1,0,0,0,1 @ F,0,0,1,0,16.529097,0,1 @ F,0,0,1,0,0,0,1" unit="px" method="auto" mode="F" radius="0" chamfer_steps="1" flexible="false" use_knot_distance="true" apply_no_radius="true" apply_with_radius="true" only_selected="true" hide_knots="false" /><inkscape:path-effect effect="fillet_chamfer" id="path-effect855" is_visible="true" lpeversion="1" satellites_param="F,0,0,1,0,14.714648,0,1 @ F,0,0,1,0,20.270541,0,1 @ F,0,0,1,0,0,0,1 @ F,0,1,1,0,0,0,1 @ F,0,1,1,0,0,0,1 @ F,0,0,1,0,0,0,1 | F,0,0,1,0,16.158946,0,1 @ F,0,0,1,0,0,0,1 @ F,0,0,1,0,0,0,1 @ F,0,0,1,0,0,0,1 @ F,0,0,1,0,0,0,1 @ F,0,0,1,0,0,0,1 @ F,0,0,1,0,0,0,1 @ F,0,1,1,0,31.433347,0,1 @ F,0,1,1,0,31.433347,0,1 @ F,0,0,1,0,0,0,1 @ F,0,0,1,0,0,0,1 @ F,0,1,1,0,0,0,1 @ F,0,1,1,0,0,0,1 @ F,0,1,1,0,0,0,1 @ F,0,1,1,0,0,0,1" unit="px" method="auto" mode="F" radius="0" chamfer_steps="1" flexible="false" use_knot_distance="true" apply_no_radius="true" apply_with_radius="true" only_selected="true" hide_knots="false" /><inkscape:path-effect effect="spiro" id="path-effect852" is_visible="true" lpeversion="1" /><inkscape:path-effect effect="spiro" id="path-effect889" is_visible="true" lpeversion="1" /><inkscape:path-effect effect="spiro" id="path-effect849" is_visible="true" lpeversion="1" /><inkscape:path-effect effect="spiro" id="path-effect851" is_visible="true" lpeversion="1" />
  <svg:style type="text/css" id="style2">
   
    .fil0 {fill:#EF7F1A;fill-rule:nonzero}
   
  </svg:style>
 <inkscape:path-effect effect="spiro" id="path-effect1214" is_visible="true" lpeversion="1" /><inkscape:path-effect effect="spiro" id="path-effect1195" is_visible="true" lpeversion="1" /><inkscape:path-effect effect="spiro" id="path-effect992" is_visible="true" lpeversion="1" /><inkscape:path-effect effect="spiro" id="path-effect1060" is_visible="true" lpeversion="1" /><inkscape:path-effect effect="spiro" id="path-effect1047" is_visible="true" lpeversion="1" /><inkscape:path-effect effect="spiro" id="path-effect1085" is_visible="true" lpeversion="1" /><inkscape:path-effect effect="spiro" id="path-effect1286" is_visible="true" lpeversion="1" /></svg:defs>
 
<svg:g id="path849"><svg:path style="color:#000000;clip-rule:nonzero;fill:#1a5fb4;fill-rule:nonzero;stroke-linecap:round;stroke-linejoin:round;-inkscape-stroke:none;shape-rendering:auto" d="m 279.84766,-30.90625 c -28.04786,0.188448 -56.08468,1.813735 -83.96875,4.873047 -37.7849,4.145584 -74.84312,10.862238 -111.251957,18.5585936 C 62.428958,-2.7822416 40.315365,2.3102225 18.300781,7.7988281 -6.1867114,13.903972 -20.938385,34.364324 -19.361328,59.361328 l 5.878906,93.199222 c 0.740335,11.73461 7.1239498,26.53434 20.7402345,33.78711 13.6162845,7.25276 28.9760055,4.42611 39.1132815,-1.19532 27.466166,-15.2308 56.453736,-27.75083 86.369136,-37.29297 15.89079,-5.06869 32.07418,-9.19526 48.41211,-12.57226 7.38623,106.90698 14.20208,213.85349 20.26368,320.84375 3.21692,56.78045 5.61841,111.63747 -6.34766,161.45312 -4.58637,19.0934 -11.19204,36.53174 -20.7168,50.38672 -9.35426,13.60698 -22.22882,24.08309 -35.36719,28.34766 -16.21772,5.26409 -37.91509,2.70761 -60.804683,-4.26172 -14.16705,-4.31353 -28.019913,-9.69444 -41.390625,-16.07422 -10.287385,-4.90858 -25.661456,-7.04788 -38.9902339,1.10156 -13.3287781,8.14945 -18.6264311,23.57091 -18.5449221,35.22071 l 0.408203,58.2539 c 0.169381,24.20879 12.260599,42.70894 36.789063,50.36719 22.46014,7.01248 45.729186,11.35143 69.226562,12.88086 29.051036,1.89092 59.039866,-0.48172 88.085936,-9.14453 61.3206,-18.28849 112.30926,-63.55589 138.50391,-121.64649 16.36599,-36.29405 22.12813,-74.06931 26.16211,-109.29492 21.92203,-191.42805 -1.96005,-381.00198 12.62695,-564.175778 0.27807,-3.491846 0.56948,-6.981148 0.875,-10.470703 2.19044,-25.0186431 -18.36853,-48.984233 -44.03711,-49.689453 -9.34644,-0.256785 -18.69759,-0.353832 -28.04687,-0.291016 z m 0.40429,59.998047 c 3.56562,-0.02397 7.12978,0.08516 10.69532,0.111328 -14.53411,189.875195 8.53929,377.212085 -12.12891,557.691405 -3.82139,33.36927 -9.23065,64.81097 -21.24609,91.45703 -18.85514,41.81411 -57.25679,75.77917 -100.95704,88.8125 -21.02814,6.27152 -43.94662,8.27261 -67.039058,6.76953 C 72.687177,772.8343 55.91176,769.80766 39.625,765.13477 l -0.160156,-22.94141 c 7.006621,2.62543 14.07776,5.08151 21.238281,7.26172 28.243242,8.59939 62.185015,15.16943 96.806645,3.93164 28.57279,-9.27441 50.79613,-28.89501 66.28515,-51.42578 15.31853,-22.28277 23.95905,-46.81615 29.61524,-70.36328 14.65276,-61.00059 11.13983,-121.85387 7.91015,-178.85938 C 254.61622,334.40758 247.10382,216.12256 238.7832,97.894531 A 30.003,30.003 0 0 0 204.78711,70.277344 C 174.17672,74.469853 143.94089,81.308355 114.50586,90.697266 90.536387,98.342823 67.154257,107.75394 44.5,118.67773 L 41.052734,64.041016 c 18.597447,-4.545329 37.253514,-8.85304 55.984375,-12.8125 35.250371,-7.451472 70.363811,-13.776804 105.384761,-17.619141 25.84051,-2.835101 51.83223,-4.342786 77.83008,-4.517578 z M 39.626953,765.48828 c 0.451697,0.59823 0.01226,1.65728 0.0332,4.65039 z" id="path17830" /></svg:g></svg:svg>
